X: 071897
T: Greenwood Lasses
S: "The Roche Collection of Traditional Irish Music" [I/73/192]
L: 1/8
M: 4/4
R: reel
K: G
D |: DGGA BGAG | FDDE FDDC | DGGA BGAG | AdcA AG Gz :|
Ad (3ddd edcA | ABcB AGFD | Ad (3ddd edcA | ABcA AGGG |
Ad (3ddd edcA | ABcB AGFD | dBcA BGAG | AdcA AG Gz |]
